X: 20491
T: GRAND MARCH FROM THE OPERA OF "NORMA."
C: Bellini.
Q: "With spirit."
%R: march, hornpipe
B: W. Hamilton "Universal Tune-Book" Vol. 2 Glasgow 1846 p.49 #1
S: http://s3-eu-west-1.amazonaws.com/itma.dl.printmaterial/book_pdfs/hamiltonvol2web.pdf
Z: 2016 John Chambers <jc:trillian.mit.edu>
M: C
L: 1/8
K: D
% - - - - - - - - - - - - - - - - - - - - - - - - -
D>F |\
A2F>A d2A>d | f6 e>f |\
g>fe>d e>dc>B | (A4 F2)B>A |\
A3G E2B>A | A3F D2d>c |\
B2B>c d>cd>e | A2a>a a2 :: A>A |\
B2B>B B>AB>c | (d4 A2)B>A |
G>FG>A B>cd>e | (f4 d2) :: d>d |\
g6 d>d | ^g6 g>g | a2f>d [1 A>cd>e | f6 :|\
[2 A>AB>c | "^Fin."d6 H|] [K:=c] [K:G] G>B |\
d2G>B d2B>g | b4 a>gf>e |
d2e>d c2d>c | B>AG>B A2d>d |\
d2B>g g2d>b | b6 a>g |\
(fbb)g (fe)(^cd) | B6 E2 |\
E>FG>A B>^cd>e | f6 e>d |\
e6 d>B | "^D.C."A6 |]
% - - - - - - - - - - - - - - - - - - - - - - - - -

%%sep 1 1 500
%%sep 1 1 500

